X: 1
T:Plante un chou
T:Plante un cao, Plante a cao
C:Ad vielle / Gentiane
M:2/4
L:1/16
K:C
e2d2 cBce|f2e2 d4|gagf edef|e2d2 e2c2|\
e2d2 cBce|f2e2 d4|gagf edef|e2d2 c4:|
|:e2e2 f3e|dcde c4|d2d2 efed|c2B2 A4|\
ABcA d2d2|cBcd e4|ABcd efed|c2B2 A4:|
|:e2e2 a3g|fedf e4|ABcd efed|c2d2 e4|\
e2e2 a3g|fedf e4|ABcd efed|c2B2 A4:|
